!!!COA:	Josquin des Prez
!!!CDT:	~1450-1521/08/27
!!!OPR:	Missa Une mousse de Biscaye
!!!ONM:	2
!!!OTL:	Gloria
!!!AGN:	Mass; Gloria
!!!SCT:	NJE 5.2
!!!SCA:	New Josquin Edition 5.2
!!!voices:	4
!!!voices-OPR:	4
**kern	**kern	**kern	**kern
*staff4	*staff3	*staff2	*staff1
*Ivox	*Ivox	*Ivox	*Ivox
*I"Bassus	*I"Tenor	*I"Altus	*I"Superius
*I'B	*I'T	*I'A	*I'S
*>[A,B]	*>[A,B]	*>[A,B]	*>[A,B]
*>A	*>A	*>A	*>A
*clefF4	*clefGv2	*clefGv2	*clefG2
*k[b-]	*k[b-]	*k[b-]	*k[b-]
*	*rscale:1/2	*	*
*M3/1	*M6/1	*M3/1	*M3/1
*met(O|)	*met(C.)	*met(O|)	*met(O|)
!!primary-mensuration: met(O|)
!!section: Et in terra
!!!OMD: Et in terra
=1-	=1-	=1-	=1-
!	!LO:N:vis=0.	!	!
0.r	0.r	1.F	1r
.	.	.	1r
.	.	2G/	.
.	.	2A/	[1f
.	.	[2B-\	.
=2	=2-	=2	=2
0.r	0.ryy	2B-\]	2f/]
.	.	4A/	2g/
.	.	4G/	.
.	.	2F/	1a
.	.	2f\	.
.	.	2d\	1b-
.	.	2e\	.
=3	=3	=3	=3
!	!LO:N:vis=0.	!	!
1r	0.r	2f\	2a/
.	.	1d	1b-
1r	.	.	.
.	.	4c\	4a/
.	.	4B-\	4g/
1D	.	1A	2f/
.	.	.	4g/
.	.	.	4a/
=4	=4-	=4	=4
2GG/	0.ryy	2G/	2b-\
1F	.	2.c\	1a
.	.	4B-\	.
2E\	.	2G/	1g
1D	.	1A	.
.	.	.	2f#i/
=5	=5	=5	=5
!	!LO:N:vis=0.	!	!
2E\	0.r	2G/	1g
2C/	.	1c	.
1D	.	.	1r
.	.	2B-\	.
2C/	.	2c\	1a
2F\	.	[2d\	.
=6	=6-	=6	=6
1D	0.ryy	4d\]	2a/
.	.	4c\	.
.	.	4B-\	2a/
.	.	4A/	.
2r	.	2G/	1.b-
2D\	.	1d	.
1G	.	.	.
.	.	4c\	4a/
.	.	4B-\	4g/
=7	=7	=7	=7
!	!LO:N:vis=0.	!	!
1.F	0.r	2.A/	2.cc\
.	.	4B-\	4b-\
.	.	1c	2a/
2E\	.	.	2g/
2D\	.	1d	2f/
2BB-/	.	.	2b-\
=8	=8-	=8	=8
2.C/	0.ryy	1c	2a/
.	.	.	1g
4D\	.	.	.
2E\	.	2B-\	.
2F\	.	2A/	1f
1C	.	1G	.
.	.	.	2e/
=9	=9	=9	=9
!	!LO:N:vis=0.	!	!
1r	0.r	0F	1f
1D	.	.	1r
2C/	.	1r	1r
2C/	.	.	.
=10	=10-	=10	=10
2BB-/	0.ryy	1d	0.r
2D\	.	.	.
2E\	.	2c\	.
2F\	.	2c\	.
2G\	.	2B-\	.
2G\	.	2d\	.
=11	=11	=11	=11
!	!LO:N:vis=0.	!	!
2C/	0.r	2e\	0.r
2D\	.	2f\	.
1E	.	2g\	.
.	.	2g\	.
2F\	.	2c\	.
[2D\	.	2d\	.
=12	=12-	=12	=12
2D\]	0.ryy	1e	0.r
2C/	.	.	.
2D\	.	2f\	.
2F\	.	1d	.
1E	.	.	.
.	.	2c#i\	.
=13	=13	=13	=13
!	!LO:N:vis=0.	!	!
2D\	0.r	1d	0.r
2.F\	.	.	.
.	.	2r	.
4E\	.	.	.
4D\	.	1A	.
4C/	.	.	.
1D	.	.	.
.	.	2B-\	.
=14	=14-	=14	=14
2E\	0.ryy	1c	0.r
2F\	.	.	.
2D\	.	1d	.
2.G\	.	.	.
.	.	2B-\	.
4F\	.	.	.
4E\	.	[2c\	.
4D\	.	.	.
=15	=15	=15	=15
2C/	0.r	4c\]	0.r
.	.	4B-\	.
2.F\	.	4A/	.
.	.	4G/	.
.	.	2F/	.
4E\	.	.	.
2D\	.	1B-	.
1C	.	.	.
.	.	2A/	.
=16	=16-	=16	=16
1BB-	0.F	1B-	1d
1BB-	.	1B-	2d/
.	.	.	2d/
2AA/	.	2c\	2c/
2AA/	.	2c\	2c/
=17	=17	=17	=17
!	!LO:N:vis=0.	!	!
2D\	[y0.F	2A/	1f
2D\	.	2A/	.
2BB-/	.	1B-	2.f/
2BB-/	.	.	.
.	.	.	4g/
1FF	.	1A	2a/
.	.	.	[2f/
=18	=18-	=18	=18
1BB-	0.F]yy	2.F/	2f/]
.	.	.	4e/
.	.	4G/	4d/
1AA	.	4A/	1c
.	.	4G/	.
.	.	4F/	.
.	.	4E/	.
1BB-	.	1D	1d
=19	=19	=19	=19
1AA	0.A	2E/	2c/
.	.	2.F/	1f
1D	.	.	.
.	.	4G/	.
.	.	4A/	4e/
.	.	4B-\	4d/
1C	.	1c	1e
=20	=20-	=20	=20
2.BB-/	0.B-	1.d	2.d/
4C/	.	.	4e/
2D\	.	.	2f/
2GG/	.	2.B-\	2.g/
1G	.	.	.
.	.	4c\	4a/
.	.	4d\	2b-\
.	.	4e-i\	.
=21	=21	=21	=21
2.A\	0A	2c\	2cc\
.	.	1f	1a
4G\	.	.	.
1F	.	.	.
.	.	4e\	4g/
.	.	4d\	4f/
2C/	1G	1e	1g
2E\	.	.	.
=22	=22-	=22	=22
1D	1F	2f\	1a
.	.	1d	.
1BB-	0G	.	2d/
.	.	4c\	1g
.	.	4B-\	.
1E-i	.	1c	.
.	.	.	4f/
.	.	.	4e/
=23	=23	=23	=23
2.D\	0.A	2d\	2f/
.	.	1f	1a
4E\	.	.	.
2F\	.	.	.
2C/	.	2e\	1g
1D	.	1d	.
.	.	.	2f#i/
=24	=24-	=24	=24
1GG	0.G	1B-	1g
1C	.	1e-i	1r
2GG/	.	2e-i\	1b-
2GG/	.	2e-i\	.
=25	=25	=25	=25
!	!LO:N:vis=0.	!	!
0G	0.r	1.d	2b-\
.	.	.	2b-\
.	.	.	1b-
.	.	2e\	.
1F	.	2.f\	2.a/
.	.	4e\	4g/
=26	=26-	=26	=26
2r	0.ryy	4d\	4f/
.	.	4c\	4e/
2E\	.	2B-\	1g
2C/	.	2c\	.
2F\	.	2A/	1f
1C	.	1G	.
.	.	.	2e/
=27	=27	=27	=27
1.D	0A	1F	1f
.	.	1D	1r
4C/	.	.	.
4BB-/	.	.	.
1C	1A	1E	1e
=28	=28-	=28	=28
2.BB-/	0B-	2F/	2.d/
.	.	2.B-\	.
4C/	.	.	4e/
2D\	.	.	2f/
.	.	4A/	.
2BB-/	.	4G/	2.g/
.	.	4F/	.
1E-i	1B-	1G	.
.	.	.	4f/
.	.	.	2g/
=29	=29	=29	=29
2.F\	0A	2F/	2a/
.	.	2.A/	2.cc\
8E\L	.	.	.
8D\J	.	.	.
2C/	.	.	.
.	.	4G/	4b-\
2.F\	.	4A/	4a/
.	.	4B-\	4g/
.	1F	1c	1a
4E\	.	.	.
4D\	.	.	.
4C/	.	.	.
=30	=30-	=30	=30
1BB-	0G	2d\	2b-\
.	.	1B-	2.g/
1E-i	.	.	.
.	.	.	4f/
.	.	2c\	4e-i/
.	.	.	4d/
1D	1F	1d	1f
=31	=31	=31	=31
2C/	1E	1G	1g
2E\	.	.	.
1D	0F	1c	2a/
.	.	.	1f
1D	.	1B-	.
.	.	.	4e/
.	.	.	4d/
=32	=32-	=32	=32
2.C/	0.G	1c	2e/
.	.	.	1g
8BB-/L	.	.	.
8AA/J	.	.	.
2GG/	.	2B-\	.
2BB-/	.	2d\	1f
1C	.	1c	.
.	.	.	2e/
=33	=33	=33	=33
2D\	0.F	1.A	0f
1F	.	.	.
2G\	.	2B-\	.
1A	.	1c	1r
=34	=34-	=34	=34
1.D	0.r	1.d	1.f
2E\	.	4c\	2g/
.	.	4B-\	.
1F	.	2A/	1a
.	.	2d\	.
=35	=35	=35	=35
*	*rscale:1	*	*
*	*M2/1	*	*
*	*met(C)	*	*
2.G\	0r	2B-\	1.b-
.	.	1d	.
4F\	.	.	.
2D\	.	.	.
2E\	.	4c\	4a/
.	.	4B-\	4g/
=-	=	=-	=-
!	!LO:N:vis=0	!	!
1F	1r	1A	1cc
=36	=36-	=36	=36
2G\	1ryy	2G/	2b-\
!LO:N:vis=1	!	!LO:N:vis=2.	!LO:N:vis=2.
[y2F	.	[y2c\	[y2a/
=-	=	=-	=-
2F]yy	0r	4c\]yy	4a/]yy
.	.	4B-\	4g/
2E-\	.	2G/	1g
1D	.	1A	.
.	.	.	2f#i/
=37	=37	=37	=37
1E	0r	2G/	1g
.	.	1c	.
1F	.	.	2r
!	!	!	!LO:N:vis=1
.	.	2c\	[y2a
=-	=	=-	=-
!	!LO:N:vis=0	!	!
2F\	1r	2c\	2a/]yy
[2F\	.	2c\	2a/
=38	=38-	=38	=38
2F\]	1ryy	1c	2a/
2F\	.	.	2a/
=-	=	=-	=-
1D	0r	1d	1a
1G	.	2B-\	1b-
.	.	2G/	.
=39	=39	=39	=39
2F\	0r	2A/	2a/
1E	.	2.B-\	1g
.	.	4A/	.
!	!	!	!LO:N:vis=1
2D\	.	2F/	[y2f/
=-	=	=-	=-
1C	1r	1G	2f/]yy
.	.	.	2e/
=40	=40-	=40	=40
!LO:N:vis=1.	!	!	!
[y1D	1F	2.F/	1f
.	.	4G/	.
=-	=	=-	=-
2D\]yy	0F	2A/	1r
2.BB-/	.	2.B-\	.
.	.	.	1f
4C/	.	4A/	.
2D\	.	2B-\	.
=41	=41	=41	=41
1C	1A	1c	2e/
.	.	.	2e/
1BB-	1B-	1d	1d
=-	=	=-	=-
2C/	1A	2c\	2e/
2D\	.	2A/	2f/
=42	=42-	=42	=42
2E-i\	2G/	2G/	2g/
!	!	!LO:N:vis=1	!LO:N:vis=2.
2D\	2F/	[y2d/	[y2a/
=-	=	=-	=-
1E-i	1G	2d/]yy	4a/]yy
.	.	.	4g/
.	.	2c\	1g
1D	1A	1d	.
.	.	.	2f#i/
=43	=43	=43	=43
1GG	1G	1B-	1g
2D\	1r	1A	2f/
2AA/	.	.	2e/
=-	=	=-	=-
1BB-	1r	2F/	1d
.	.	2G/	.
=44	=44-	=44	=44
2AA/	1A	2E/	2c/
2D\	.	2D/	2f/
=-	=	=-	=-
2C/	2A/	2E/	2e/
2BB-/	1B-\	1F	2d/
2D\	.	.	2f/
2GG/	2B-\	[2D/	2g/
=45	=45	=45	=45
2.F\	1A	2D/]	2.a/
.	.	2d\	.
4G\	.	.	4b-\
2A\	2F/	2c\	2cc\
2G\	[2G/	2d\	2b-\
=-	=	=-	=-
2E\	2G/]	2e\	2g/
2F\	2F/	[2c\	2a/
=46	=46-	=46	=46
2C/	2E/	2c\]	2g/
!	!	!	!LO:N:vis=1
2D\	2F/	2B-\	[y2f/
=-	=	=-	=-
1C	1G	1c	2f/]yy
.	.	.	2e/
2D\	1F	1A	2f/
[2F\	.	.	[2a/
=47	=47	=47	=47
4F\]	1r	1F	4a/]
4E\	.	.	4g/
4D\	.	.	4f/
4C/	.	.	4e/
!LO:N:vis=0	!	!	!
[y1BB-	[1B-l	1G	[1dl
=-	=	=-	=-
1BB-]yy	1B_	2F/	1d_
.	.	[2G/	.
=48	=48-	=48	=48
[1BB-l	1B-_	2G/]	1d_
.	.	4F/	.
.	.	4E/	.
=-	=	=-	=-
0BB-]	0B-]	0Dl	0d]
!!LO:LB:i:g=z
*	*rscale:1	*	*
=49||	=49||	=49||	=49||
*>B	*>B	*>B	*>B
*clefF4	*clefGv2	*clefGv2	*clefG2
*k[b-]	*k[b-]	*k[b-]	*k[b-]
*M2/1	*M2/1	*M2/1	*M2/1
*met(C|)	*met(C|)	*met(C|)	*met(C|)
!!!OMD: Qui tollis
!!section: Qui tollis
0r	0r	0r	1.f
.	.	.	4e/
.	.	.	4f/
=50	=50	=50	=50
0r	1.B-	0r	1g
.	.	.	2f/
.	4A/	.	2b-\
.	4B-\	.	.
=51	=51	=51	=51
0r	2.c\	0r	2a/
.	.	.	1g
.	4B-\	.	.
.	2G/	.	.
.	2A/	.	4f/
.	.	.	4e/
=52	=52	=52	=52
0r	1B-	0r	4d/
.	.	.	4e/
.	.	.	4f/
.	.	.	4g/
.	2c\	.	2a/
.	[2d\	.	[2b-\
=53	=53	=53	=53
1D	2d\]	0r	2b-\]
.	4c\	.	4a/
.	4B-\	.	4g/
2D\	1A	.	1f#i
2D\	.	.	.
=54	=54	=54	=54
1E	1G	1G	1g
1E	1r	2G/	1r
.	.	2G/	.
=55	=55	=55	=55
2C/	0r	1.A	0r
2.D\	.	.	.
4C/	.	.	.
4BB-/	.	4G/	.
4AA/	.	4A/	.
=56	=56	=56	=56
2GG/	0r	1.B-	0r
1G	.	.	.
4F\	.	4A/	.
4E\	.	4G/	.
=57	=57	=57	=57
2.F\	0r	2A/	0r
.	.	1c	.
4E\	.	.	.
2C/	.	.	.
[2D\	.	[2B-\	.
=58	=58	=58	=58
2D\]	0r	2B-\]	0r
4C/	.	4A/	.
4BB-/	.	4G/	.
1AA	.	1c	.
=59	=59	=59	=59
2GG/	0r	2B-\	0r
1C	.	1A	.
2BB-/	.	[2G/	.
=60	=60	=60	=60
1AA	1A	2G/]	1cc
.	.	2F#i/	.
2GG/	2B-\	2G/	2b-\
[2D\	2B-\	2Fni/	2b-\
=61	=61	=61	=61
2D\]	1A	1E	1cc
2C/	.	.	.
2.D\	1d	2.F/	2a/
.	.	.	2b-\
4E\	.	4G/	.
=62	=62	=62	=62
2F\	2c\	2A/	2a/
2G\	2B-\	2G/	1b-
1E	1G	2B-\	.
.	.	2c\	4a/
.	.	.	4g/
=63	=63	=63	=63
2D\	2A/	2d\	2f/
2E\	2G/	2c\	1g
1D	1A	1d	.
.	.	.	2f#i/
=64	=64	=64	=64
1GG	1G	1B-	1g
1r	1r	1r	1r
=65	=65	=65	=65
1.D	1.A	1.d	1.f
2D\	2A/	2d\	2f/
=66	=66	=66	=66
1D	1A	1d	1f
2D\	2A/	2d\	2f/
2D\	2A/	2d\	2f/
=67	=67	=67	=67
2GG/	2B-\	2d\	2g/
2GG/	2B-\	2d\	2g/
1D	1A	1d	1f
=68	=68	=68	=68
1E-i	1G	1B-	1g
1C	1A	1c	1e
=69	=69	=69	=69
0D	[0F;l	0A	0f
=70	=70	=70	=70
0BB-;l	0F]	0B-;l	0d;l
=71	=71	=71	=71
1r	0r	1d	0r
2r	.	2c\	.
[2G\	.	[2d\	.
=72	=72	=72	=72
2G\]	0r	4d\]	0r
.	.	4e\	.
2F\	.	2f\	.
2.G\	.	2e\	.
.	.	[2d\	.
4A\	.	.	.
=73	=73	=73	=73
2B-\	0r	2d\]	0r
4A\	.	4c\	.
4G\	.	4B-\	.
1F	.	1A	.
=74	=74	=74	=74
1B-	0r	2G/	0r
.	.	2d\	.
1A	.	2c\	.
.	.	2f\	.
=75	=75	=75	=75
2G\	0r	2e\	0r
2F\	.	2f\	.
2G\	.	2e\	.
2A\	.	[2f\	.
=76	=76	=76	=76
1D	1F	4f\]	0r
.	.	4e\	.
.	.	1d	.
1E	1G	.	.
.	.	2c#i\	.
=77	=77	=77	=77
1D	1F	0d	1f
1GG	1B-	.	1g
=78	=78	=78	=78
2D\	2.A/	1d	2f/
4C/	.	.	2.a/
4BB-/	4B-\	.	.
2AA/	2c\	2c\	.
.	.	.	4g/
2D\	[2d\	[2A/	2f/
=79	=79	=79	=79
1AA	2d\]	2A/]	1e
.	2c\	2A/	.
2.D\	2B-\	2.F/	2d/
.	4A/	.	[2f/
8C/L	4G/	4G/	.
8BB-/J	.	.	.
=80	=80	=80	=80
1AA	1F	2A/	4f/]
.	.	.	4g/
.	.	2c\	2a/
2GG/	2.G/	1B-	2b-\
[2E-\	.	.	[2g/
.	4A/	.	.
=81	=81	=81	=81
1E-]	2B-\	1G	2g/]
.	2c\	.	4f/
.	.	.	4e/
2.D\	1d	2A/	2.f/
.	.	2F/	.
4Eni\	.	.	4g/
=82	=82	=82	=82
2F\	2c\	2r	2a/
2BB-/	2B-\	1f	1b-
1F	1c	.	.
.	.	2f\	2a/
=83	=83	=83	=83
1G	1B-	1d	1b-
1r	1r	1r	1r
=84	=84	=84	=84
1.E-	1.B-	1.e-	1.g
2E-i\	2B-\	2e-i\	2g/
=85	=85	=85	=85
1E-i	1B-	1e-i	1g
1E-i	1B-	1e-i	1g
=86	=86	=86	=86
2.C/	1c	1e-i	1a
4D\	.	.	.
2E-i\	2B-\	2e-i\	2g/
[2F\	[2A/	[2d\	[2a/
=87	=87	=87	=87
4F\]	2A/]	4d\]	4a/]
4E-i\	.	4c\	4g/
2C/	1G	1c	2e/
1D	.	.	1f
.	2F/	2B-\	.
=88	=88	=88	=88
2C/	2G/	2c\	2e/
2BB-/	2B-\	2d\	2d/
2AA/	2c\	2c\	2f/
2GG/	[2d\	2B-\	2g/
=89	=89	=89	=89
1BB-	4d\]	1d	1f
.	4c\	.	.
.	4B-\	.	.
.	4A/	.	.
2C/	2G/	2c\	2e/
2D\	2F/	2A/	2f/
=90	=90	=90	=90
1GG	1B-	2r	2d/
.	.	2.d\	1g
1D	1A	.	.
.	.	4c\	.
.	.	2A/	2f#i/
=91	=91	=91	=91
0GG	[0G	2B-\	1g
.	.	4c\	.
.	.	4d\	.
.	.	2e-i\	1r
.	.	[2d\	.
=92	=92	=92	=92
0G	0G]	2d\]	1b-
.	.	4c\	.
.	.	4B-\	.
.	.	4d\	1b-
.	.	4c\	.
.	.	4B-\	.
.	.	4A/	.
=93	=93	=93	=93
1G	1r	1B-	1b-
[1F	[1A	2A/	2cc\
.	.	[2F/	[2a/
=94	=94	=94	=94
2F\]	1A]	4F/]	2a/]
.	.	4G/	.
4E\	.	4A/	4g/
4D\	.	4B-\	4f/
2C/	1A	1c	2e/
2AA/	.	.	[2f/
=95	=95	=95	=95
1D	0A	1r	2f/]
.	.	.	4e/
.	.	.	4d/
1C	.	1c	1e
=96	=96	=96	=96
1BB-	1.B-	2d\	2d/
.	.	1B-	1g
1E-i	.	.	.
.	4A/	2c\	4f/
.	4G/	.	4e/
=97	=97	=97	=97
1D	1A	1d	2f/
.	.	.	4g/
.	.	.	4a/
1GG	1G	2B-\	1b-
.	.	[2d\	.
=98	=98	=98	=98
1D	1F	4d\]	2a/
.	.	4c\	.
.	.	2d\	2f/
2C/	2E/	2e\	2g/
2AA/	[2F/	2c\	[2a/
=99	=99	=99	=99
2D\	4F/]	2d\	4a/]
.	4G/	.	4g/
2F\	2A/	1c	1f
1C	1G	.	.
.	.	2c\	2e/
=100	=100	=100	=100
2r	1F	0A	0f
2.D\	.	.	.
.	1r	.	.
4C/	.	.	.
4BB-/	.	.	.
4AA/	.	.	.
=101	=101	=101	=101
2GG/	0B-	2r	0r
2.G\	.	2.B-\	.
4F\	.	4A/	.
4E\	.	4G/	.
4D\	.	4F/	.
=102	=102	=102	=102
2E\	1c	2G/	0r
2F\	.	2A/	.
2BB-/	[1d	2B-\	.
[2F\	.	[2A/	.
=103	=103	=103	=103
2F\]	2d\]	2A/]	0r
4E\	4c\	4G/	.
4D\	4B-\	4F/	.
2E\	1c	2G/	.
[2F\	.	[2A/	.
=104	=104	=104	=104
4F\]	1F	4A/]	0r
4E\	.	4G/	.
4D\	.	4F/	.
4C/	.	4E/	.
2BB-/	1B-	2D/	.
2D\	.	2F/	.
=105	=105	=105	=105
2E\	2c\	2G/	0r
2F\	2.d\	2A/	.
1BB-	.	2B-\	.
.	4c\	.	.
.	[2B-\	4c\	.
.	.	4d\	.
=106	=106	=106	=106
1C	2B-\]	1e-i	1r
.	2A/	.	.
1BB-	2B-\	2d\	1f
.	[2d\	[2B-\	.
=107	=107	=107	=107
2GG/	2d\]	4B-\]	1b-
.	.	4c\	.
2G\	4c\	4d\	.
.	4B-\	4e\	.
2F\	2A/	1f	2cc\
2D\	[2B-\	.	[2dd\
=108	=108	=108	=108
1BB-	4B-\]	2d\	4dd\]
.	4c\	.	4cc\
.	2d\	1f	1b-
1F	1c	.	.
.	.	2f\	2a/
=109	=109	=109	=109
1.G	1B-	[0d	0b-
.	1r	.	.
4F\	.	.	.
4E\	.	.	.
=110	=110	=110	=110
1D	1B-	0d]	1r
1D	1B-	.	1b-
=111	=111	=111	=111
1C	1c	1e	1g
1F	1A	1c	1a
=112	=112	=112	=112
1D	1B-	1d	1f
[1E-i	1G	1B-	[1g
=113	=113	=113	=113
2E-\]	2r	1c	2g/]
4D\	1G	.	4f/
4C/	.	.	4e/
1BB-	.	[1d	1d
.	2F/	.	.
=114	=114	=114	=114
1GG	2G/	0d]	2r
.	2B-\	.	1g
1D	1A	.	.
.	.	.	2f/
=115	=115	=115	=115
2GG/	1G	1d	2g/
1G	.	.	2b-\
.	2r	2e\	1a
2F\	[2c\	2f\	.
=116	=116	=116	=116
2.G\	2c\]	1d	1g
.	2B-\	.	.
4F\	.	.	.
2E\	2c\	2e\	2r
2C/	2e-i\	[2g\	[2cc\
=117	=117	=117	=117
1G	1d	1g]	2cc\]
.	.	.	2b-\
1C	1c	[1g	2cc\
.	.	.	2ee-i\
=118	=118	=118	=118
2.G\	1r	2g\]	4dd\
.	.	.	4cc\
.	.	2.G/	4b-\
4F\	.	.	4a/
2E\	1B-	.	2g/
.	.	4A/	.
2D\	.	2B-\	2f/
=119	=119	=119	=119
2C/	1c	2G/	1e
2.AA/	.	2.c\	.
.	[1A	.	1a
4BB-/	.	4d\	.
2C/	.	2e\	.
=120	=120	=120	=120
1D	2A/]	2d\	1f
.	1.B-	2.B-\	.
1BB-	.	.	2.g/
.	.	4c\	.
.	.	2d\	.
.	.	.	4f/
=121	=121	=121	=121
2C/	1G	2c\	2e/
2BB-/	.	2d\	2d/
1AA	1A	1e	1c
=122	=122	=122	=122
1D	1.F	2d\	1f
.	.	2.B-\	.
1BB-	.	.	1d
.	.	4c\	.
.	[2G/	2d\	.
=123	=123	=123	=123
1C	1G]	1.c	1e
2AA/	1A	.	2c/
2D\	.	2F/	2f/
=124	=124	=124	=124
2BB-/	1B-	1G	2d/
2E-i\	.	.	2g/
2C/	1c	1A	2e/
[2F\	.	.	[2a/
=125	=125	=125	=125
4F\]	2A/	2r	4a/]
4E\	.	.	4g/
2D\	1d	1.A	2f/
1AA	.	.	1e
.	2c\	.	.
=126	=126	=126	=126
0D	2B-\	2.F/	2.d/
.	2.d\	.	.
.	.	4G/	4e/
.	.	1A	4f/
.	4e\	.	4g/
.	[2f\	.	[2a/
=127	=127	=127	=127
2D\	4f\]	2F/	2a/]
.	4e\	.	.
2BB-/	2d\	1.f	1b-
1F	1c	.	.
.	.	.	2a/
=128	=128	=128	=128
2G\	2B-\	2d\	2b-\
2F\	2A/	2f\	2cc\
2G\	2B-\	2d\	2b-\
2F\	2A/	[2f\	[2cc\
=129	=129	=129	=129
1G	1B-	2f\]	2cc\]
.	.	2e\	1b-
1F	1c	1f	.
.	.	.	2a/
=130	=130	=130	=130
0BB-l	0B-l	0fl	0b-l
==	==	==	==
*-	*-	*-	*-
!!!RDF**kern: l=long note in original notation
!!!RDF**kern: i=editorial accidental
!!!ENC:	Jesse Rodin; Victoria Chang 2012/02/05
!!!END:	2012/02/05/
!!!EED:	Jesse Rodin
!!!EEV:	2013/10/25/
!!attribution-level@Jos: 4 (questionable)
!!!ONB:	Translated from MusicXML and edited on 2012/08/03/ by Craig Sapp
!!muse2ps: T^@{OPR}^u^@{ONM}{. }@{OTL}^C^@{COA}?\n@{SCT}^i2I150v85,85,85,150Q16
